X:1
T:No. 9 Serenade
T:No. 9 Serenade
T:From "Poetic Tone Pictures", Op. 85
T:Anton Dvořák
C:Anton Dvorak
%%score { ( 1 2 3 ) | ( 4 5 ) }
L:1/8
Q:1/4=108
M:4/4
K:C
V:1 treble nm="Piano" snm="Pno."
V:2 treble 
V:3 treble 
V:4 bass 
V:5 bass 
V:1
"^Moderato" z/!f! g3/2 [eg]f/a/ .[ec']/ g3/2 [eg]f/a/ | %1
 .c'/ z/ c/f/a/ z/ A/c/f/ z/ F/A/[Ac]/ z/ [GB]/[FA]/ | [EG]E/G/[ce]/ z/ z z B,/D/[GB]/ z/ z | %3
!pp! x4 z3/2!mp![Q:1/4=108] E<EF/ |: G2 G2 z3/2 G<Gc/ | F2 F2 z3/2!<(! F<GA/ | B>c!<)!!mp! d3 BGF | %7
!>(! F/E/A/G/ G2 z3/2!>)!!mp! E<EF/ | G2 G2 z3/2 G<cB/ | B2 A2 z3/2 A<Bc/ | d2 (3GAB cE^FB |1 %11
 A2[Q:1/4=92] G2 z3/2[Q:1/4=114]!mp! E<EF/ :|2 A2 G2 z3/2 G/ G>A || B2 B2 z3/2 B/ c>d | %14
{/c} e>c G2 z3/2 G<cG/ | F2- F/A/G/F/ E2- E/C/(3G/F/E/ | %16
 [B,D]2 (3.[EG].[DF].[CE] [B,D]2 (3[eg][df][ce] | [Bd]4 z3/2!pp! G/ G>A | B2 B2 z3/2!<(! B/ c>d | %19
 e2!<)!!p! e2 z3/2 e/"_cresc." e>e | f2 f3 Pf!f! e>f |!>(! _g3 _e/_c/ _B2 _c!>)!!p!B/_A/ | %22
 _B2 _d4 _cB | _A2 A2 z2 A_B | _c2 _e4 _dc | _B2 _G2 z3/2[Q:1/4=112]!<(! B/ B>c!<)![Q:1/4=92] | %26
!mf! _d2 d2 z3/2!>(! d/ c>_B!>)! |!mp! =A2!<(! c2 z3/2 c/ c>=d!<)! |!f! _e2 e2 z3/2 e/ d>c | %29
 =B>d g6 | B B,/D/ G6-[Q:1/4=102][Q:1/4=92] | %31
!p! G2!>(! ^G2[Q:1/4=80] A=G/F/!>)!!pp![Q:1/4=70] E!fermata!F || %32
[M:6/8][Q:1/4=150]"^L'istesso tempo"!pp! !>!G3 !>!G3- | G2 !>![CA] !>![CB]2 !>![Cc] | %34
 !>!F3 !>!F3- | F2 !>!F !>![FG]2 !>![F=A] | !>![DGB]2!<(! !>![DAc] !>!d3- | %37
 d2 !>![DB]!<)!!p! !>![B,G]2 !>![B,F] |!>(! !>!F!>!E!>!A !>!G3- | %39
 G2 !>!E!>)!!pp! !>![CE]2 !>![CF] | !>!G3!<(! !>!G3- | G2 !>!G !>!c2 !>!B!<)! |!p! !>!B3 !>!A3- | %43
!<(! A2 !>![D^FA] !>![DGB]2 !>![DAc]!<)! |!mf! !>![DBd]2!>(! !>![EG] !>![EA]2 !>![EB] | %45
 !>!c2 !>!E !>!^F2 !>!B!>)! |!p! !>!A3!>(! !>!G3- | G2 !>!G !>!G2 !>!A!>)! |!pp! !>!B3 !>!B3- | %49
!<(! B2 !>!B !>!c2 !>!d!<)! |!p! !>!e2!>(! !>!e !>!G3- | G2 !>!G!>)!!p! !>!c2!>(! !>!G | %52
 !>!F3 !>!_A!>!G!>!F | !>!_E3!>)!!pp! !>!G!>!F!>!_E | !>!_E3 !>!D3- | D2 !>!G !>!G2 !>!=A | %56
!pp! !>!B3!<(! !>!B3- | B2 !>!B !>!c2 !>!d | !>!e3 !>!e3-!<)! | %59
!<(! e2[Q:1/4=140] !>!e !>!e2 !>!e!<)! |!ff! !>!f3 !>!f3- |!<(! f2 !>!f !>!f2 !>!f!<)! | %62
!ff! !>![_G_a]2!>(! !>![G_g] !>!g!>!_e!>!_c | !>!_B3 !>!_c2!>)!!p! !>!B | %64
[Q:1/4=150] !>!_G3 !>!_d3- | d2 !>!_d !>!_c2 !>!_B | !>!_B3 !>!_A3- | A2 !>!_A!<(! !>!A2 !>!_B | %68
 !>!_c3!<)!!mp! !>!_e3- |!>(! e2 !>!_e !>!_d2 !>!_c!>)! |!pp! !>!_B6- | B2 !>!_B !>!B2 !>!=c | %72
!<(! !>!_d3 !>!d3- | d2 !>!_d !>!=c2 !>!_B!<)! |!mf! !>!=A3!<(! !>!c3- | c2 !>!c !>!c2 !>!=d!<)! | %76
!f! !>!_e3!<(! !>!e3- | e2 !>!_e !>!=d2 !>!c!<)! |!ff! !>!B2 !>!d !>!g3- | g6 | %80
 !>!B z!p! B,/!<(!D/!<)! G3- |[Q:1/4=130]!>(! G6!>)! || %82
[M:4/4][Q:1/4=108]"^L'istesso tempo"!pp! !fermata![B,G]4 z3/2 E<EF/ |!pp! G>G G2 z3/2 G<Gc/ | %84
 F2 F2 z3/2!<(! F/ G>A | B>c!<)!!mp! d3 BG>F |!>(! F/E/A/G/ G2 z3/2!>)!!pp! E/ E>F!pp! | %87
!<(! G2 G2 z3/2 A/ _B>c!<)! | A>c!f! f3 c=BA | %89
 z (3c/e/g/ z[Q:1/4=88]"^poco ritard" (3B/d/g/ z (3c/e/g/ z (3F/B/g/ | %90
!f! z3/2 [dg]/!mf! T[dg]/4!<(![ea]/4[dg]/4[ea]/4[dg]/4[ea]/4[dg]/4[ea]/4[dg]/4[ea]/4[dg]/4[ea]/4[dg]/4[ea]/4[dg]/4[ea]/4[dg]/4[ea]/4[dg]/4[ea]/4 [^c^f]/[dg]/!<)! | %91
!ff![Q:1/4=108]"^in tempo" [cec']/ g3/2 [eg]f/a/ .[cec']/ g3/2 [eg] f/a/ | %92
 .c'/ z/ c/f/a/ z/ A/c/f/ z/ E/G/[eg]/[eg]/ z | z B,/D/[GB]/[GB]/ z z C/E/[Gc]/[Gc]/ z | %94
!ff! [cegc'] z z2 z4 |] %95
V:2
 x/ g/e/B/ cc x/ g/e/B/ cc | .e/ x/ A z F z x x2 | x8 | x8 |: x8 | x8 | x8 | x2 z!pp! C x4 | x8 | %9
 x8 | (3z DG (3z EG x4 |1 (3z!p! B,D G2 x4 :|2 (3z B,D x2 x4 || x8 | x8 | x2 D z x2 C z | x8 | x8 | %18
 x8 | c2 z2 ^G2 [Ec] z | !arpeggio![F_c]2 x2 [_Ac] z F z | x6 =D/_E/F | x8 | x8 | x8 | x8 | x8 | %27
 x8 | x8 | z2 z!mp! d [c=f][Be]dc | x2 z"^poco a poco rit."!mp! D [CF][B,E]DC | B,6 B,2 || %32
[M:6/8] C2 C C2 C | C2 x4 | C2 C C2 C | C2 C C2 C | x2 x [DB]2 [DB] | [DB]2 x4 | B,CC C2 C | %39
 C2 C x2 x | C2 C C2 C | C2 C C2 [CE] | [CE]2 [CD] [CD]2 [CD] | [CD]2 z x2 x | x6 | E2 C C2 ^F | %46
 E2 E E2 C | D2 D D2 D | G2 G G2 G | G2 G G2 G | G2 G C2 C | C2 C C2 C | C2 C =B,2 B, | C2 C C2 C | %54
 =B,2 B, B,2 B, | B,2 B, B,2 D | G2 G G2 G | G2 G [GA]2 [GB] | [E^G=c]2 [EGc] [EGc]2!f! [EGc] | %59
 [E^Gc]2 [EGc] [EGc]2 [EGc] | [F_c_e]2 [Fce] [Fce]2 [Fce] | [F_c_e]2 [Fc] [F_B]2 [F_A] | %62
 x2 x _E_GE | _D=CD =D_EF | [_B,_D]2 [B,D] [B,_G]2 [B,G] | [_B,_G]2 [B,G] [B,G]2 [B,G] | %66
 [_CF]2 [CF] [CF]2 [B,F] | [_CF]2 [CF] [CF]2 [_DF] | [_E_G]3 [_F_B]3 | [=F_c]2 [Fc] [F_B]2 _A | %70
 _A2 _D _G2 G | _G2 =E E2 E | =E2 E E2 [_B,E] | [_B,E]2 E E2 E | F2 [A,F] [A,F]2 [A,F] | %75
 [A,F]2 F ^F2 F | ^F2 F F2 [CF] | [C^F]2 F F2 F | G2 z z2 d | (4:3:4!>![cf]2 !>![Be]2 !>!d2 !>!c2 | %80
 x2 x z2!mf! D | (4:3:4!tenuto![CF]2 !tenuto![B,E]2 !tenuto!D2 !tenuto!C2 ||[M:4/4] x8 | x8 | x8 | %85
 x8 | x8 | x8 | x4 x C3 | !>!G2 !>!F2 !>!E2 !>!D2 | !arpeggio![F,B,F]8 | %91
 x/ g/e/B/ c c x/ g/e/B/ cc | z/ x/ A z F z x x2 | x8 | x8 |] %95
V:3
 x/ x/ e x2 x/ x/ e x2 | x8 | x8 | x8 |: x8 | x8 | x8 | x8 | x8 | x8 | x8 |1 x8 :|2 x8 || x8 | x8 | %15
 x8 | x8 | x8 | x8 | x8 | x8 | x8 | x8 | x8 | x8 | x8 | x8 | x8 | x8 | x8 | x8 | x8 ||[M:6/8] x6 | %33
 x6 | x6 | x6 | x6 | x6 | x6 | x6 | x6 | x6 | x6 | x6 | x6 | x6 | x6 | x6 | x6 | x6 | x6 | x6 | %52
 x6 | x6 | x6 | x6 | x6 | x6 | x6 | x6 | x6 | x6 | x6 | x6 | x6 | x6 | x6 | x6 | x6 | x6 | x6 | %71
 x6 | x6 | x6 | x6 | x6 | x6 | x6 | x6 | x6 | x6 | x6 ||[M:4/4] x8 | x8 | x8 | x8 | x8 | x8 | x8 | %89
 x8 | x8 | x/ x/ e x2 x/ x/ e x2 | x8 | x8 | x8 |] %95
V:4
!ped! z2 z/[K:treble] G/A/F/!ped-up!!ped! .[CG]/ z/ z z/[K:treble] G/A/!ped-up!F/ | %1
!ped! .[CG]/ z/ F/C/F,/ z/[K:bass] C/A,/C,/ z/ A,/C,/F,,/ z/!ped-up! z | %2
 z!ped! C/G,/C,/ z/!ped-up! z z!ped! F,/D,/G,,/ z/!ped-up! z | %3
 z!ped! E,/G,/[CE]!ped-up! !fermata!z z4 |: %4
!pp!!ped! C,,z/E,/ E,/G,/[I:staff -1]C/[I:staff +1]E,/ G, z!ped-up! z2 | %5
!ped! D,,z/F,/ F,/A,/[I:staff -1]C/[I:staff +1]F,/ A, z!ped-up! z2 | %6
!ped! G,,z/F,/!ped-up!!p!!ped! F,/G,/[I:staff -1]B,/[I:staff +1]F,/ G,!ped-up! z [G,B,] z | %7
!ped!!>(! C,,z/!ped-up!E,/!ped! E,/G,/A,/G,/!>)!!pp! G, z z2!ped-up! | %8
!ped! C,,z/E,/ E,/G,/[I:staff -1]C/[I:staff +1]E,/ G,!ped-up! z!ped! A,, z!ped-up! | %9
!ped! D,,z/^F,/ F,/C/[I:staff -1]D/[I:staff +1]F,/ C2!ped-up! ^F,2 | %10
!ped! (3G,B, z!ped-up!!ped! (3B,E z!ped-up!!ped! (3E,A,[I:staff -1]C!ped-up!!ped![I:staff +1] (3D,C[I:staff -1]D!ped-up! |1 %11
!ped![I:staff +1] G,,2- (3G,,D,B,!pp! !fermata!G,2!ped-up! z2 :|2 %12
!ped! G,,2 (3G,,D,B, G,2!ped-up! z2 || %13
!ped! z3/2 [G,B,]/ [G,B,]/D/[I:staff -1]G/[I:staff +1]B,/ D z!ped-up! G, z | %14
!ped! z3/2 G,/ G,/C/[I:staff -1]E/[I:staff +1]G,/ C z!ped-up! z2 | %15
!ped! (3G,,G,[I:staff -1]B,[I:staff +1] x2!ped-up!!ped! (3C,E,[I:staff -1]G,[I:staff +1] x2!ped-up! | %16
 G,,G, (3.C,.E,.F, G,G,,/ z/ (3CEF |!p!!ped! !wedge!G2 !wedge!G,2 !wedge!G,,2!ped-up! z2 | %18
!ped! z3/2 [G,B,]/ [G,B,]/D/[I:staff -1]G/[I:staff +1]B,/ D2!ped-up! z2 | %19
!pp!!ped! z3/2!<(! E/ E/^G/c/E/ z2 x z!ped-up!!<)! | %20
!mp!!ped! [_D,_A,_C] z/[K:treble]!<(! F/ F/_A/[I:staff -1][_c_e]/[I:staff +1][FA]/ z2!<)![K:bass]!mf! [_D,_A,_C] z!ped-up! | %21
!ped!!>(! [_B,_E]/[I:staff -1]_G/_B/[I:staff +1]=D/ E/F/[I:staff -1]G/_E/!ped-up!!ped![I:staff +1] _G,/B,/[I:staff -1]=C/_D/[I:staff +1] F,!>)!!ped-up!!pp!_C | %22
!ped! _B,/_D/[I:staff -1]_G/[I:staff +1]B,/ D/_G/B,/D/[I:staff -1] G/[I:staff +1]B,/D/G/ B,/D/G/B,/!ped-up! | %23
!ped! _C/_D/[I:staff -1]F/[I:staff +1]C/ D/F/C/D/[I:staff -1] F/[I:staff +1]C/D/F/ C/D/F/C/!ped-up! | %24
!ped! _D/[I:staff -1]F/[I:staff +1]_C/D/ F/C/D/F/ C/D/[I:staff -1]F/[I:staff +1]C/!ped-up! D/F/C/D/ | %25
!ped! _B,/_D/[I:staff -1]_G/[I:staff +1]B,/ D/_G/B,/D/ G z!ped-up! z2 | %26
!mp!!ped! z3/2 _B,/ B,/[I:staff -1]=E/_B/[I:staff +1]B,/ E z!ped-up! z2 | %27
!p!!ped! z3/2 C/ C/[I:staff -1]F/A/[I:staff +1]C/ F z!ped-up! z2 | %28
!mf!!ped! z3/2 C/ C/[I:staff -1]^F/c/[I:staff +1]C/ ^F!ped-up! z!ped! [D,^F,C] z!ped-up! | %29
!ped! !arpeggio![G,,D,=B,] z!ped-up!!ped! z[K:treble] B AG[=FA][EG] | %30
 [DF]!ped-up! z!ped! z[K:bass]!>(! B, A,G,[F,A,][E,G,]!ped-up!!>)! | [D,F,]6 E,D, || %32
[M:6/8] [C,E,]2 [C,E,] [C,E,]2 [C,E,] | [B,,C,E,]2 [A,,C,E,] [A,,E,]2 [A,,E,] | %34
 [_A,,D,]2 [A,,D,] [A,,D,]2 [A,,D,] | [G,,D,]2 [G,,D,] [G,,D,]2 [G,,D,] | %36
 [F,,G,,F,]2 [F,,G,,F,] [F,,G,,F,]2 [F,,G,,F,] | [F,,G,,F,]2 [F,,G,,F,] [E,,G,,E,]2 [D,,G,,D,] | %38
 D,C,F, E,2 E, | [C,E,]2 [C,G,] [C,G,]2 [C,F,] | [C,E,]2 [C,E,] [C,E,]2 [B,,E,] | %41
 [B,,E,]2 [B,,E,] [A,,E,]2 [A,,E,G,] | [D,G,]2 [D,^F,] [D,F,]2 [D,F,] | %43
 [D,^F,]2 [C,D,F,] [C,D,F,]2 [C,D,F,] | [B,,D,G,]2 [E,B,] [E,A,]2 [E,G,] | %45
 [A,,G,]2 [G,,G,] D,2 [D,C] | [G,C]2 [G,C] [G,C]2 [G,A,] | [G,B,]2 [G,B,] [G,B,]2 [G,C] | %48
 [F,D]2 [F,G,D] [F,G,D]2 [F,G,D] | [F,G,D]2 [F,G,] [F,G,A,]2 [F,G,B,] | %50
 [E,G,C]2 [E,C] [E,G,]2 [E,G,] | [_E,G,]2 [E,G,] [E,G,]2 [E,G,] | [D,_A,]2 [D,A,] [_D,F,]2 [D,F,] | %53
 [C,G,]2 [C,G,] _E,F,^F, | [G,,G,]2 [G,,G,] G,2 G, | G,2 [G,D] [G,D]2 [G,C] | %56
 [F,G,D]2 [F,G,D]!<(! [F,G,D]2 [F,G,D] | [F,G,D]2 [F,G,D] [F,A,]2 B, | %58
!ped! [E,^G,=C]2 [E,G,C] [E,G,C]2!<)!!mp! [E,G,C]!ped-up! | %59
!ped!!<(! [D,^G,C]2 [D,G,C] [D,G,C]2 [D,G,C]!ped-up!!<)! | %60
!mf!!ped! [_D,_A,_C]2 [D,A,C] [D,A,C]2 [D,A,C] | [_D,_A,_C]2 [D,_E]!ped-up! [D,_D]2 [D,C] | %62
!ped! [_E,_B,]2!>(! [E,B,]!ped-up!!ped! !arpeggio![_A,,_E,_C]2 [_A,C]!ped-up! | %63
 [_D,_G,]2 [D,G,] [D,F,]2!>)!!pp! [D,_C] | _G,2 G,!ped! [_G,,_D,]2 [G,,D,] | %65
 [_G,,_D,]2 [G,,D,]!ped-up! [G,,D,]2 [G,,D,] | %66
!ped! [_G,,_D,]2 [G,,D,]!ped-up!!ped! [G,,D,]2 [G,,D,] | %67
 [_G,,_D,]2 [G,,D,]!<(! [G,,D,]2 [G,,D,]!ped-up! | [_G,,_D,]2 [G,,D,]!<)!!p! [G,,D,]2 [G,,D,] | %69
!>(! [_G,,_D,]2 [G,,D,] [G,,D,]2 [G,,D,]!>)! |!pp! [_G,,_D,]2 [G,,D,] [G,,D,]2 [G,,D,] | %71
 [_G,,_D,]2 [_G,_D] [G,D]2 [G,=C] |!ped!!<(! [_G,_B,]2 [G,B,] [G,B,]2 [_G,,_D,] | %73
 [_G,,_D,]2 [_G,_B,]!ped-up! [=G,=A,]2 [G,B,]!<)! |!mp!!ped! [F,C]2!<(! [F,,C,] [F,,C,]2 [F,,C,] | %75
 [F,,C,]2!ped-up! [=A,C] [_A,_E]2 [A,=D]!<)! |!mp!!ped! [_A,C]2!<(! [A,C] [A,C]2 [_A,,_E,] | %77
 [_A,,_E,]2 [_A,C]!ped-up! [A,=B,]2 [A,C]!<)! |!mf! [G,D]2 z z2[K:treble] B | %79
 (4:3:4!>!A2 !>!G2 !>![FA]2 !>![EG]2 |!ped! [DF] z!ped-up! z z2[K:bass] B, | %81
 (4:3:4!tenuto!A,2 !tenuto!G,2 !tenuto![F,A,]2 !tenuto![E,G,]2 ||[M:4/4] !fermata![D,F,]4 z4 | %83
!pp!!ped! C,,z/E,/ E,/G,/[I:staff -1]C/[I:staff +1]E,/ G, z!ped-up! z2 | %84
!ped! D,,z/F,/ F,/A,/[I:staff -1]C/[I:staff +1]F,/ A, z!ped-up! z2 | %85
!ped! G,,z/F,/!ped-up!!p!!ped! F,/G,/[I:staff -1]B,/[I:staff +1]F,/ G,!ped-up! z B,D | %86
!ped!!>(! C,,z/!ped-up!E,/!ped! E,/G,/A,/G,/!>)!!pp! G,2 z2!ped-up! | %87
!ped!!<(! E,,z/C,/ C,/G,/C/G,/ _B, z!ped-up! [E,,C,]2 | %88
!ped! [F,,C,]z/A,/!<)!!mf! A,/C/[I:staff -1][FA]/[I:staff +1]A,/ C!ped-up! A,G,F, | %89
!ped! !>!E,2!ped-up!!ped! !>!D,2!ped-up!!ped! !>!C,2!ped-up!!ped! !>!B,,2!ped-up! | %90
!ped! z3/2[K:treble] B/ TB/4c/4B/4c/4B/4c/4B/4c/4B/4c/4B/4c/4B/4c/4B/4c/4B/4c/4B/4c/4 ^A/B/!ped-up! | %91
!ped! [CG]/ z/ z z/!ped-up! G/A/F/!ped! .[CG]/ z/ z!ped-up!!ped! z/[K:treble] G/A/F/ | %92
 .C/!ped-up! z/!ped! F/C/F,/ z/[K:bass] C/A,/C,/!ped-up! z/!ped! C/G,/C,/C,/ z!ped-up! | %93
 z!ped! F,/D,/G,,/G,,/ z!ped-up! z!ped! E,/G,,/C,,/C,,/ z!ped-up! | %94
[K:treble]!ped! [CG] z z2!ped-up! z4 |] %95
V:5
 x5/2[K:treble] x4[K:treble] x3/2 | x3[K:bass] x5 | x8 | z C,/G,,/C,, z x4 |: x8 | x8 | x8 | %7
 x2 E,2- E, x x2 | x8 | x6 D,>C, | B,,2 E,2 A,,2 D,2 |1 x8 :|2 x8 || !>!=F,8 | !>!E,6 x2 | x8 | %16
 x8 | x8 | F,2 x2 x4 | [E,^G,C]2 z2 x2 [=D,^G,C] x | x3/2[K:treble] x9/2[K:bass] x2 | %21
 _E,3 [_A,_C] _D,4 | !>!_G,8 | !>!_G,8 | !>!_G,8 | !>!_G,4- G, x x2 | %26
 !arpeggio![_G,,=E,_B,]2 x2 x4 | !arpeggio![F,,C,=A,]2 x2 x4 | !arpeggio![_A,,^F,C]2 x2 x4 | %29
 x3[K:treble] x5 | x3[K:bass] x5 | x6 G,,2 ||[M:6/8] x6 | x6 | x6 | x6 | x6 | x6 | %38
 [C,,G,,]2 C, C,2 C, | x6 | x6 | x6 | x6 | x6 | x6 | x6 | x6 | x6 | x6 | x6 | x6 | x6 | x6 | x6 | %54
 x6 | x6 | x6 | x2 x G,2 [F,G,] | x6 | x6 | x6 | x6 | x6 | x6 | x6 | x6 | x6 | x6 | x6 | x6 | x6 | %71
 x6 | x6 | x6 | x6 | x6 | x6 | x6 | x5[K:treble] x | x6 | x5[K:bass] x | x6 ||[M:4/4] x4 x4 | x8 | %84
 x8 | x8 | x8 | x8 | x4 x C,3 | E,G,, D,G,, C,G,, B,,G,, | !arpeggio![C,,G,,D,]8[K:treble] | %91
 x13/2[K:treble] x3/2 | x3[K:bass] x5 | x8 |[K:treble] x8 |] %95

